X: 13
T:Captain Campbell
M:4/4
L:1/8
Q:90
S:Hunter
R:Strathspey
D:The Driven Bow (Track 7)
K:A Minor
E<AA>B c>AB<G | D<GG>A B>d c/2B/2A/2G/2 |
E<AA>B c>Bc<e |1 d<Bg>B A2 A>G :|2 d<B g>B A2 A>B ||!
A<aa>g e>dc<e | d>eg>e d/2c/2B/2A/2 G<B |
A<aa>g e>dc<e | d<Bg>B A2 A>B | !
A<aa>g e>dc<e | d>eg>e d/2c/2B/2A/2 G<B |
c>Ad<B e>dc<e | d<Bg>B A2 A>G ||

